icons/mobile/20/svg/shield-checkmark-fill-20.svg

<svg width="20" height="20" viewBox="0 0 20 20" fill="none" xmlns="http://www.w3.org/2000/svg">
<path fill-rule="evenodd" clip-rule="evenodd" d="M8.43175 3.4738C9.38566 2.83687 10.609 2.84072 11.548 3.48552C12.108 3.87052 12.6942 4.23084 13.2892 4.55584C13.9241 4.9028 14.5757 5.21649 15.2267 5.48748C16.4056 5.97846 17.0895 7.2528 16.8536 8.51775L16.4103 10.9045C16.1983 12.0483 15.8145 13.0464 15.2716 13.8703C14.2616 15.4031 12.8799 16.7363 11.38 17.6252C10.957 17.8761 10.4809 18.0011 10.005 18.0011C9.52101 18.0011 9.03466 17.8724 8.60168 17.6144C7.11182 16.7285 5.73849 15.401 4.73253 13.8761C4.18853 13.0501 3.80393 12.0477 3.59093 10.8947L3.14464 8.47087C2.91075 7.20097 3.59193 5.92568 4.76281 5.43767C5.29381 5.21667 5.8184 4.97304 6.3214 4.71404C7.04827 4.34009 7.75787 3.92272 8.43175 3.4738ZM12.7804 9.03533C12.4874 8.74233 12.0119 8.74233 11.7189 9.03533L9.35851 11.3957L8.28039 10.3176C7.98743 10.0246 7.51186 10.0247 7.21886 10.3176C6.92587 10.6105 6.9259 11.0861 7.21886 11.3791L8.47375 12.634C8.70975 12.87 9.02451 13.0002 9.35851 13.0002C9.69233 13 10.0064 12.8698 10.2423 12.634L12.7804 10.0959C13.073 9.80297 13.073 9.32828 12.7804 9.03533Z" fill="black"/>
</svg>

<!-- This Source Code Form is subject to the terms of the Mozilla Public
   - License, v. 2.0. If a copy of the MPL was not distributed with this
   - file, You can obtain one at http://mozilla.org/MPL/2.0/. -->
<svg xmlns="http://www.w3.org/2000/svg" width="20" height="20" fill="none" viewBox="0 0 20 20">
    <path fill="#000" fill-rule="evenodd" d="M8.432 3.474a2.77 2.77 0 0 1 3.116.012 20.434 20.434 0 0 0 3.679 2.002 2.75 2.75 0 0 1 1.627 3.03l-.444 2.387c-.212 1.143-.595 2.141-1.138 2.965-1.01 1.533-2.392 2.866-3.892 3.755-.423.251-.9.376-1.375.376-.484 0-.97-.129-1.403-.387-1.49-.886-2.864-2.213-3.87-3.738-.543-.826-.928-1.828-1.141-2.981L3.145 8.47c-.234-1.27.447-2.545 1.618-3.033a21.849 21.849 0 0 0 3.669-1.964m4.348 5.561a.75.75 0 0 0-1.061 0l-2.36 2.36-1.079-1.077a.75.75 0 0 0-1.061 1.061l1.255 1.255c.236.236.55.366.885.366.333 0 .647-.13.883-.366l2.538-2.538a.75.75 0 0 0 0-1.06" clip-rule="evenodd" />
</svg>
